48x48/apps/org.gnome.seahorse.Application.svg

<svg xmlns="http://www.w3.org/2000/svg" width="48" height="48" version="1">
 <path style="opacity:0.3" d="M 5.1425781,7 C 3.4014353,7 2,8.379433 2,10.091797 V 12.1 H 46 V 10.091797 C 46,8.379433 44.598565,7 42.857422,7 Z M 2,18.9 V 37.908203 C 2,39.620567 3.4014353,41 5.1425781,41 H 42.857422 C 44.598565,41 46,39.620567 46,37.908203 V 18.9 Z"/>
 <path style="fill:#2cb978" d="M 5.1425781,6 C 3.4014353,6 2,7.379433 2,9.091797 V 12.1 H 46 V 9.091797 C 46,7.379433 44.598565,6 42.857422,6 Z M 2,17.9 V 36.908203 C 2,38.620567 3.4014353,40 5.1425781,40 H 42.857422 C 44.598565,40 46,38.620567 46,36.908203 V 17.9 Z"/>
 <path style="opacity:0.2" d="M 5.7519531,32 6.2539062,34.111328 4.6230469,32.746094 4.0117188,33.826172 6.109375,34.515625 4,35.177734 4.5996094,36.279297 6.2558594,34.902344 5.7519531,37 H 7.1796875 L 6.71875,34.933594 8.3242188,36.316406 8.9414062,35.224609 6.859375,34.521484 9,33.927734 8.3925781,32.835938 6.703125,34.119141 7.1796875,32 Z m 6.9999999,0 0.501953,2.111328 -1.630859,-1.365234 -0.611328,1.080078 2.097656,0.689453 L 11,35.177734 11.599609,36.279297 13.255859,34.902344 12.751953,37 h 1.427735 L 13.71875,34.933594 15.324219,36.316406 15.941406,35.224609 13.859375,34.521484 16,33.927734 15.392578,32.835938 13.703125,34.119141 14.179688,32 Z m 7,0 0.501953,2.111328 -1.630859,-1.365234 -0.611328,1.080078 2.097656,0.689453 L 18,35.177734 18.599609,36.279297 20.255859,34.902344 19.751953,37 h 1.427735 L 20.71875,34.933594 22.324219,36.316406 22.941406,35.224609 20.859375,34.521484 23,33.927734 22.392578,32.835938 20.703125,34.119141 21.179688,32 Z m 7,0 0.501953,2.111328 -1.630859,-1.365234 -0.611328,1.080078 2.097656,0.689453 L 25,35.177734 25.599609,36.279297 27.255859,34.902344 26.751953,37 h 1.427735 L 27.71875,34.933594 29.324219,36.316406 29.941406,35.224609 27.859375,34.521484 30,33.927734 29.392578,32.835938 27.703125,34.119141 28.179688,32 Z m 7,0 0.501953,2.111328 -1.630859,-1.365234 -0.611328,1.080078 2.097656,0.689453 L 32,35.177734 32.599609,36.279297 34.255859,34.902344 33.751953,37 h 1.427735 L 34.71875,34.933594 36.324219,36.316406 36.941406,35.224609 34.859375,34.521484 37,33.927734 36.392578,32.835938 34.703125,34.119141 35.179688,32 Z m 7,0 0.501953,2.111328 -1.630859,-1.365234 -0.611328,1.080078 2.097656,0.689453 L 39,35.177734 39.599609,36.279297 41.255859,34.902344 40.751953,37 h 1.427735 L 41.71875,34.933594 43.324219,36.316406 43.941406,35.224609 41.859375,34.521484 44,33.927734 43.392578,32.835938 41.703125,34.119141 42.179688,32 Z"/>
 <path style="opacity:0.2;fill:#f4f4f7" d="M 5.1425781,6 C 3.4014353,6 2,7.379433 2,9.091797 v 1 C 2,8.379433 3.4014353,7 5.1425781,7 H 42.857422 C 44.598565,7 46,8.379433 46,10.091797 v -1 C 46,7.379433 44.598565,6 42.857422,6 Z"/>
 <rect style="opacity:0.1" width="44" height="1" x="2" y="19"/>
 <path style="opacity:0.2" d="m 9,22 -3,3 3,3 z m 1,0 v 6 h 1 v -6 z m 2,0 v 6 h 2 v -6 z m 3,0 v 6 h 1 v -6 z m 2,0 v 6 h 1 v -6 z m 2,0 v 6 h 2 v -6 z m 3,0 v 6 h 2 v -6 z m 3,0 v 6 h 1 v -6 z m 2,0 v 6 h 1 v -6 z m 2,0 v 6 h 1 v -6 z m 2,0 v 6 h 1 v -6 z m 2,0 v 6 h 2 v -6 z m 3,0 v 6 h 1 v -6 z m 2,0 v 6 h 2 v -6 z m 3,0 v 6 h 1 v -6 z"/>
 <path style="fill:#b2f5c0" d="M 5.7519531,31 6.2539062,33.111328 4.6230469,31.746094 4.0117188,32.826172 6.109375,33.515625 4,34.177734 4.5996094,35.279297 6.2558594,33.902344 5.7519531,36 H 7.1796875 L 6.71875,33.933594 8.3242188,35.316406 8.9414062,34.224609 6.859375,33.521484 9,32.927734 8.3925781,31.835938 6.703125,33.119141 7.1796875,31 Z m 6.9999999,0 0.501953,2.111328 -1.630859,-1.365234 -0.611328,1.080078 2.097656,0.689453 L 11,34.177734 11.599609,35.279297 13.255859,33.902344 12.751953,36 h 1.427735 L 13.71875,33.933594 15.324219,35.316406 15.941406,34.224609 13.859375,33.521484 16,32.927734 15.392578,31.835938 13.703125,33.119141 14.179688,31 Z m 7,0 0.501953,2.111328 -1.630859,-1.365234 -0.611328,1.080078 2.097656,0.689453 L 18,34.177734 18.599609,35.279297 20.255859,33.902344 19.751953,36 h 1.427735 L 20.71875,33.933594 22.324219,35.316406 22.941406,34.224609 20.859375,33.521484 23,32.927734 22.392578,31.835938 20.703125,33.119141 21.179688,31 Z m 7,0 0.501953,2.111328 -1.630859,-1.365234 -0.611328,1.080078 2.097656,0.689453 L 25,34.177734 25.599609,35.279297 27.255859,33.902344 26.751953,36 h 1.427735 L 27.71875,33.933594 29.324219,35.316406 29.941406,34.224609 27.859375,33.521484 30,32.927734 29.392578,31.835938 27.703125,33.119141 28.179688,31 Z m 7,0 0.501953,2.111328 -1.630859,-1.365234 -0.611328,1.080078 2.097656,0.689453 L 32,34.177734 32.599609,35.279297 34.255859,33.902344 33.751953,36 h 1.427735 L 34.71875,33.933594 36.324219,35.316406 36.941406,34.224609 34.859375,33.521484 37,32.927734 36.392578,31.835938 34.703125,33.119141 35.179688,31 Z m 7,0 0.501953,2.111328 -1.630859,-1.365234 -0.611328,1.080078 2.097656,0.689453 L 39,34.177734 39.599609,35.279297 41.255859,33.902344 40.751953,36 h 1.427735 L 41.71875,33.933594 43.324219,35.316406 43.941406,34.224609 41.859375,33.521484 44,32.927734 43.392578,31.835938 41.703125,33.119141 42.179688,31 Z"/>
 <rect style="fill:#17191e" width="44" height="7" x="2" y="12"/>
 <path style="opacity:0.2" d="M 16,4 C 9.9248678,4 5,8.9248678 5,15 c 0,4.662125 2.9052024,8.636893 7,10.238281 V 44.822266 L 13,46 h 2.75 l 3.255859,-3.535156 -0.75,-0.78711 0.75,-0.785156 -1.5,-1.570312 1.5,-1.572266 -0.75,-0.785156 0.75,-0.78711 -1.125,-1.177734 1.125,-1.177734 v -1.179688 l -0.75,-0.785156 0.75,-0.785156 V 29.033203 L 21,28.966797 V 24.789062 C 24.559247,22.967538 27,19.272898 27,15 27,8.9248678 22.075132,4 16,4 Z m 0,3.03125 c 1.656822,2e-7 2.999955,1.3361372 3,2.984375 C 18.999955,11.663863 17.656822,13 16,13 c -1.656822,0 -2.999955,-1.336137 -3,-2.984375 4.5e-5,-1.6482378 1.343178,-2.9843748 3,-2.984375 z"/>
 <path style="fill:#f4f4f7" d="m 12,22.999993 8.999997,2e-6 3e-6,4.967265 -1.994999,0.06548 v 2.038684 l -0.75,0.785715 0.75,0.785715 v 1.178572 l -1.124999,1.178571 1.124999,1.178571 -0.75,0.785715 0.749997,0.785713 -1.499999,1.571428 1.500002,1.571429 -0.75,0.785714 0.75,0.785714 -3.254999,3.535715 L 13.000094,45 12,43.82142 Z"/>
 <path style="opacity:0.2" d="m 13.293556,25.226181 c 0.634908,-0.486057 1.718376,-0.134456 1.706221,0.553638 L 15.000001,44.999996 13.000094,45 V 25.779819 c -0.0037,-0.207393 0.102131,-0.407111 0.293462,-0.553638 z"/>
 <path style="fill:#f4f4f7" d="M 16,3 C 9.9248678,3 5,7.9248678 5,14 5,20.075132 9.9248678,25 16,25 22.075132,25 27,20.075132 27,14 27,7.9248678 22.075132,3 16,3 Z m 0,3.031625 c 1.656822,2e-7 2.999955,1.3361372 3,2.984375 -4.5e-5,1.648238 -1.343178,2.984375 -3,2.984375 -1.656822,0 -2.999955,-1.336137 -3,-2.984375 4.5e-5,-1.6482378 1.343178,-2.9843748 3,-2.984375 z"/>
 <path style="opacity:0.2;fill:#f4f4f7" d="M 16 3 C 9.9248678 3 5 7.9248678 5 14 C 5 14.168757 5.0178711 14.333099 5.0253906 14.5 C 5.2885682 8.6585867 10.093625 4 16 4 C 21.906375 4 26.711432 8.6585867 26.974609 14.5 C 26.982129 14.333099 27 14.168757 27 14 C 27 7.9248678 22.075132 3 16 3 z M 13.050781 9.515625 C 13.02293 9.6789982 13.000005 9.8443639 13 10.015625 C 13.000045 11.663863 14.343178 13 16 13 C 17.656822 13 18.999955 11.663863 19 10.015625 C 18.999995 9.8443639 18.97707 9.6789982 18.949219 9.515625 C 18.70903 10.924576 17.484669 12 16 12 C 14.515331 12 13.29097 10.924576 13.050781 9.515625 z"/>
</svg>

<svg xmlns="http://www.w3.org/2000/svg" width="48" height="48" version="1"><path style="opacity:.3" d="M5.143 7C3.4 7 2 8.38 2 10.092V12.1h44v-2.008C46 8.379 44.599 7 42.857 7zM2 18.9v19.008C2 39.621 3.401 41 5.143 41h37.714C44.6 41 46 39.62 46 37.908V18.9z"/><path style="fill:#2cb978" d="M5.143 6C3.4 6 2 7.38 2 9.092V12.1h44V9.092C46 7.379 44.599 6 42.857 6zM2 17.9v19.008C2 38.621 3.401 40 5.143 40h37.714C44.6 40 46 38.62 46 36.908V17.9z"/><path style="opacity:.2" d="m5.752 32 .502 2.111-1.631-1.365-.611 1.08 2.097.69L4 35.178l.6 1.101 1.656-1.377L5.752 37H7.18l-.461-2.066 1.605 1.382.617-1.091-2.082-.704L9 33.928l-.607-1.092-1.69 1.283L7.18 32zm7 0 .502 2.111-1.631-1.365-.611 1.08 2.097.69-2.109.662.6 1.101 1.656-1.377L12.752 37h1.428l-.461-2.066 1.605 1.382.617-1.091-2.082-.704L16 33.928l-.607-1.092-1.69 1.283L14.18 32zm7 0 .502 2.111-1.631-1.365-.611 1.08 2.097.69-2.109.662.6 1.101 1.656-1.377L19.752 37h1.428l-.461-2.066 1.605 1.382.617-1.091-2.082-.704L23 33.928l-.607-1.092-1.69 1.283L21.18 32zm7 0 .502 2.111-1.631-1.365-.611 1.08 2.097.69-2.109.662.6 1.101 1.656-1.377L26.752 37h1.428l-.461-2.066 1.605 1.382.617-1.091-2.082-.704L30 33.928l-.607-1.092-1.69 1.283L28.18 32zm7 0 .502 2.111-1.631-1.365-.611 1.08 2.097.69-2.109.662.6 1.101 1.656-1.377L33.752 37h1.428l-.461-2.066 1.605 1.382.617-1.091-2.082-.704L37 33.928l-.607-1.092-1.69 1.283L35.18 32zm7 0 .502 2.111-1.631-1.365-.611 1.08 2.097.69-2.109.662.6 1.101 1.656-1.377L40.752 37h1.428l-.461-2.066 1.605 1.382.617-1.091-2.082-.704L44 33.928l-.607-1.092-1.69 1.283L42.18 32z"/><path style="opacity:.2;fill:#f4f4f7" d="M5.143 6C3.4 6 2 7.38 2 9.092v1C2 8.379 3.401 7 5.143 7h37.714C44.6 7 46 8.38 46 10.092v-1C46 7.379 44.599 6 42.857 6z"/><path style="opacity:.1" d="M2 19h44v1H2z"/><path style="opacity:.2" d="m9 22-3 3 3 3zm1 0v6h1v-6zm2 0v6h2v-6zm3 0v6h1v-6zm2 0v6h1v-6zm2 0v6h2v-6zm3 0v6h2v-6zm3 0v6h1v-6zm2 0v6h1v-6zm2 0v6h1v-6zm2 0v6h1v-6zm2 0v6h2v-6zm3 0v6h1v-6zm2 0v6h2v-6zm3 0v6h1v-6z"/><path style="fill:#b2f5c0" d="m5.752 31 .502 2.111-1.631-1.365-.611 1.08 2.097.69L4 34.178l.6 1.101 1.656-1.377L5.752 36H7.18l-.461-2.066 1.605 1.382.617-1.091-2.082-.704L9 32.928l-.607-1.092-1.69 1.283L7.18 31zm7 0 .502 2.111-1.631-1.365-.611 1.08 2.097.69-2.109.662.6 1.101 1.656-1.377L12.752 36h1.428l-.461-2.066 1.605 1.382.617-1.091-2.082-.704L16 32.928l-.607-1.092-1.69 1.283L14.18 31zm7 0 .502 2.111-1.631-1.365-.611 1.08 2.097.69-2.109.662.6 1.101 1.656-1.377L19.752 36h1.428l-.461-2.066 1.605 1.382.617-1.091-2.082-.704L23 32.928l-.607-1.092-1.69 1.283L21.18 31zm7 0 .502 2.111-1.631-1.365-.611 1.08 2.097.69-2.109.662.6 1.101 1.656-1.377L26.752 36h1.428l-.461-2.066 1.605 1.382.617-1.091-2.082-.704L30 32.928l-.607-1.092-1.69 1.283L28.18 31zm7 0 .502 2.111-1.631-1.365-.611 1.08 2.097.69-2.109.662.6 1.101 1.656-1.377L33.752 36h1.428l-.461-2.066 1.605 1.382.617-1.091-2.082-.704L37 32.928l-.607-1.092-1.69 1.283L35.18 31zm7 0 .502 2.111-1.631-1.365-.611 1.08 2.097.69-2.109.662.6 1.101 1.656-1.377L40.752 36h1.428l-.461-2.066 1.605 1.382.617-1.091-2.082-.704L44 32.928l-.607-1.092-1.69 1.283L42.18 31z"/><path style="fill:#17191e" d="M2 12h44v7H2z"/><path style="opacity:.2" d="M16 4C9.925 4 5 8.925 5 15c0 4.662 2.905 8.637 7 10.238v19.584L13 46h2.75l3.256-3.535-.75-.787.75-.785-1.5-1.57 1.5-1.573-.75-.785.75-.787L17.88 35l1.125-1.178v-1.18l-.75-.785.75-.785v-2.039L21 28.967v-4.178c3.56-1.821 6-5.516 6-9.789 0-6.075-4.925-11-11-11zm0 3.031c1.657 0 3 1.336 3 2.985A2.992 2.992 0 0 1 16 13c-1.657 0-3-1.336-3-2.984a2.992 2.992 0 0 1 3-2.985z"/><path style="fill:#f4f4f7" d="M12 23h9v4.967l-1.995.066v2.038l-.75.786.75.786v1.178L17.88 34l1.125 1.179-.75.785.75.786-1.5 1.571 1.5 1.572-.75.786.75.785L15.75 45H13l-1-1.179z"/><path style="opacity:.2" d="M13.294 25.226c.634-.486 1.718-.134 1.706.554V45h-2V25.78c-.004-.208.102-.407.294-.554z"/><path style="fill:#f4f4f7" d="M16 3C9.925 3 5 7.925 5 14s4.925 11 11 11 11-4.925 11-11S22.075 3 16 3zm0 3.032c1.657 0 3 1.336 3 2.984A2.992 2.992 0 0 1 16 12c-1.657 0-3-1.336-3-2.984a2.992 2.992 0 0 1 3-2.984z"/><path style="opacity:.2;fill:#f4f4f7" d="M16 3C9.925 3 5 7.925 5 14c0 .169.018.333.025.5C5.29 8.659 10.094 4 16 4s10.711 4.659 10.975 10.5c.007-.167.025-.331.025-.5 0-6.075-4.925-11-11-11zm-2.95 6.516a2.96 2.96 0 0 0-.05.5A2.992 2.992 0 0 0 16 13c1.657 0 3-1.336 3-2.984a2.96 2.96 0 0 0-.05-.5A2.99 2.99 0 0 1 16 12a2.99 2.99 0 0 1-2.95-2.484z"/></svg>
